symbols/web/6k_plus/materialsymbolsrounded/6k_plus_wght500fill1_40px.svg

<svg xmlns="http://www.w3.org/2000/svg" height="40" width="40"><path d="M28.708 23.333q.334 0 .584-.25.25-.25.25-.583v-1.667h1.708q.333 0 .562-.25.23-.25.23-.583 0-.333-.25-.583-.25-.25-.584-.25h-1.666V17.5q0-.333-.25-.583-.25-.25-.584-.25-.333 0-.583.25-.25.25-.25.583v1.667h-1.667q-.333 0-.562.25-.229.25-.229.583 0 .333.25.583.25.25.583.25h1.625V22.5q0 .333.25.583.25.25.583.25ZM20.208 25q.5 0 .813-.312.312-.313.312-.813V21.25l3 3.417q.125.166.334.25.208.083.416.083.709 0 1-.646.292-.646-.166-1.146L23.083 20l2.834-3.25q.458-.542.166-1.146-.291-.604-.958-.604-.25 0-.458.104-.209.104-.375.271l-2.959 3.375v-2.667q0-.458-.312-.771-.313-.312-.813-.312-.458 0-.77.312-.313.313-.313.813v7.792q0 .458.313.771.312.312.77.312Zm-8.875 0h3.917q.625 0 1.062-.417.438-.416.438-1.041V20.75q0-.625-.438-1.042-.437-.416-1.062-.416h-3.167v-2.084h3.584q.458 0 .771-.312.312-.313.312-.771 0-.5-.312-.813-.313-.312-.813-.312h-4.292q-.625 0-1.041.438-.417.437-.417 1.062v7.042q0 .625.417 1.041.416.417 1.041.417Zm.75-1.458V20.75h2.459v2.792Zm-4.208 11.75q-1.292 0-2.229-.938-.938-.937-.938-2.229V7.875q0-1.25.938-2.208.937-.959 2.229-.959h24.25q1.25 0 2.208.959.959.958.959 2.208v24.25q0 1.292-.959 2.229-.958.938-2.208.938Z"/></svg>

<svg xmlns="http://www.w3.org/2000/svg" height="40" width="40"><path d="M28.708 23.333Q29.042 23.333 29.292 23.083Q29.542 22.833 29.542 22.5V20.833H31.25Q31.583 20.833 31.812 20.583Q32.042 20.333 32.042 20Q32.042 19.667 31.792 19.417Q31.542 19.167 31.208 19.167H29.542V17.5Q29.542 17.167 29.292 16.917Q29.042 16.667 28.708 16.667Q28.375 16.667 28.125 16.917Q27.875 17.167 27.875 17.5V19.167H26.208Q25.875 19.167 25.646 19.417Q25.417 19.667 25.417 20Q25.417 20.333 25.667 20.583Q25.917 20.833 26.25 20.833H27.875V22.5Q27.875 22.833 28.125 23.083Q28.375 23.333 28.708 23.333ZM20.208 25Q20.708 25 21.021 24.688Q21.333 24.375 21.333 23.875V21.25L24.333 24.667Q24.458 24.833 24.667 24.917Q24.875 25 25.083 25Q25.792 25 26.083 24.354Q26.375 23.708 25.917 23.208L23.083 20L25.917 16.75Q26.375 16.208 26.083 15.604Q25.792 15 25.125 15Q24.875 15 24.667 15.104Q24.458 15.208 24.292 15.375L21.333 18.75V16.083Q21.333 15.625 21.021 15.312Q20.708 15 20.208 15Q19.75 15 19.438 15.312Q19.125 15.625 19.125 16.125V23.917Q19.125 24.375 19.438 24.688Q19.75 25 20.208 25ZM11.333 25H15.25Q15.875 25 16.312 24.583Q16.75 24.167 16.75 23.542V20.75Q16.75 20.125 16.312 19.708Q15.875 19.292 15.25 19.292H12.083V17.208H15.667Q16.125 17.208 16.438 16.896Q16.75 16.583 16.75 16.125Q16.75 15.625 16.438 15.312Q16.125 15 15.625 15H11.333Q10.708 15 10.292 15.438Q9.875 15.875 9.875 16.5V23.542Q9.875 24.167 10.292 24.583Q10.708 25 11.333 25ZM12.083 23.542V20.75H14.542V23.542ZM7.875 35.292Q6.583 35.292 5.646 34.354Q4.708 33.417 4.708 32.125V7.875Q4.708 6.625 5.646 5.667Q6.583 4.708 7.875 4.708H32.125Q33.375 4.708 34.333 5.667Q35.292 6.625 35.292 7.875V32.125Q35.292 33.417 34.333 34.354Q33.375 35.292 32.125 35.292Z"/></svg>
